X: 30362
T: Old Pigeon On The Gate, The
R: reel
M: 4/4
K: Gmajor
|:Bc|dG G2 dgeg|d2 de dcAB|cF F2 cFdF|(3Bcd de dcBc|
dG G2 dgeg|d2 de dcAG|FGAB cdeg|fdcA G2 Bc:|
|:dg g2 ag g2|dg g2 bgaf|dcde f3e|defg agfd|
dg g2 ag g2|dg g2 b3g|dcde fgfd|cAFA G4:|

